src/assets/duotone/Lock1.svg

<svg width="24" height="24" viewBox="0 0 24 24"  xmlns="http://www.w3.org/2000/svg">
<path opacity="0.4" d="M12.0001 17.3498C12.9003 17.3498 13.6301 16.6201 13.6301 15.7198C13.6301 14.8196 12.9003 14.0898 12.0001 14.0898C11.0999 14.0898 10.3701 14.8196 10.3701 15.7198C10.3701 16.6201 11.0999 17.3498 12.0001 17.3498Z" />
<path d="M16.65 9.43994H7.35C3.25 9.43994 2 10.6899 2 14.7899V16.6499C2 20.7499 3.25 21.9999 7.35 21.9999H16.65C20.75 21.9999 22 20.7499 22 16.6499V14.7899C22 10.6899 20.75 9.43994 16.65 9.43994ZM12 18.7399C10.33 18.7399 8.98 17.3799 8.98 15.7199C8.98 14.0599 10.33 12.6999 12 12.6999C13.67 12.6999 15.02 14.0599 15.02 15.7199C15.02 17.3799 13.67 18.7399 12 18.7399Z" />
<path opacity="0.4" d="M7.12021 9.45V8.28C7.12021 5.35 7.95021 3.4 12.0002 3.4C16.0502 3.4 16.8802 5.35 16.8802 8.28V9.45C17.3902 9.46 17.8502 9.48 18.2802 9.54V8.28C18.2802 5.58 17.6302 2 12.0002 2C6.37021 2 5.72021 5.58 5.72021 8.28V9.53C6.14021 9.48 6.61021 9.45 7.12021 9.45Z" />
</svg>

<?xml version="1.0" encoding="UTF-8"?>
<svg width="24" height="24" viewBox="0 0 24 24" xmlns="http://www.w3.org/2000/svg">
 <path d="m12 17.35c0.9002 0 1.63-0.7297 1.63-1.63 0-0.9002-0.7298-1.63-1.63-1.63s-1.63 0.7298-1.63 1.63c0 0.9003 0.7298 1.63 1.63 1.63z" opacity=".4"/>
 <path d="m16.65 9.4399h-9.3c-4.1 0-5.35 1.25-5.35 5.35v1.86c0 4.1 1.25 5.35 5.35 5.35h9.3c4.1 0 5.35-1.25 5.35-5.35v-1.86c0-4.1-1.25-5.35-5.35-5.35zm-4.65 9.3c-1.67 0-3.02-1.36-3.02-3.02s1.35-3.02 3.02-3.02 3.02 1.36 3.02 3.02-1.35 3.02-3.02 3.02z"/>
 <path d="m7.1202 9.45v-1.17c0-2.93 0.83-4.88 4.88-4.88 4.05 0 4.88 1.95 4.88 4.88v1.17c0.51 0.01 0.97 0.03 1.4 0.09v-1.26c0-2.7-0.65-6.28-6.28-6.28-5.63 0-6.28 3.58-6.28 6.28v1.25c0.42-0.05 0.89-0.08 1.4-0.08z" opacity=".4"/>
</svg>
